svgs/wild_rift.svg

<svg width="192" height="192" viewBox="0 0 192 192" xmlns="http://www.w3.org/2000/svg"><path d="M86.652 139.766h-6a6 6 0 0 0 6 6v-6ZM47.158 22.211l4.256 4.23 1.744-1.755V22.21h-6Zm0 .423 5.308-2.797-1.688-3.203h-3.62v6ZM54.51 36.59h6a6 6 0 0 0-.692-2.797L54.51 36.59Zm0 118.822 5.29 2.831a6 6 0 0 0 .71-2.831h-6Zm-7.352 13.743v6h3.594l1.696-3.169-5.29-2.831Zm0 .423h6v-2.474l-1.744-1.755-4.256 4.229Zm89.702 0 4.256 4.229 1.114-1.121.417-1.524-5.787-1.584Zm7.982-29.177-4.256-4.229-1.114 1.121-.417 1.525 5.787 1.583Zm0-.423h-6v6h6v-6Zm-.42-6.211h-57.77v12h57.77v-12Zm-51.77 6V22.423h-12v117.343h12Zm0-117.343c0-4.982-4.57-6.423-6.63-6.423v12a5.24 5.24 0 0 1-3.143-1.079 5.636 5.636 0 0 1-2.227-4.498h12ZM86.022 16H47.577v12H86.02V16Zm-38.444 0c-.01 0-.27-.002-.556.017-.272.018-.9.072-1.642.321a6.193 6.193 0 0 0-2.934 2.082 6.19 6.19 0 0 0-1.288 3.791h12a5.81 5.81 0 0 1-1.217 3.547 5.809 5.809 0 0 1-2.744 1.957 5.469 5.469 0 0 1-1.372.275c-.188.012-.343.01-.247.01V16ZM42.9 17.982c-.567.572-1.901 2.122-1.901 4.52 0 1.422.519 3.23 2.074 4.599a6.17 6.17 0 0 0 4.084 1.533v-12c.89 0 2.443.225 3.847 1.461A5.878 5.878 0 0 1 53 22.502a5.568 5.568 0 0 1-1.586 3.939L42.9 17.982Zm-1.052 7.45 7.353 13.954 10.616-5.594-7.352-13.955-10.617 5.594Zm6.661 11.157V155.41h12V36.589h-12Zm.71 115.992-7.353 13.743 10.581 5.661 7.353-13.743-10.581-5.661Zm-2.062 10.573c-.996 0-2.628.252-4.084 1.534A6.12 6.12 0 0 0 41 169.286c0 2.399 1.334 3.949 1.901 4.52l8.513-8.458A5.569 5.569 0 0 1 53 169.286a5.88 5.88 0 0 1-1.995 4.408 5.833 5.833 0 0 1-3.847 1.46v-12Zm-6 6.423c0 2.044.955 3.595 1.875 4.52.917.923 2.475 1.903 4.545 1.903v-12c1.86 0 3.208.875 3.967 1.639a5.575 5.575 0 0 1 1.613 3.938h-12Zm6.42 6.423h88.651v-12h-88.65v12Zm88.651 0c2.075 0 3.483-1.006 3.93-1.343.513-.387.93-.824.957-.851l-8.513-8.458c-.183.185.024-.041.327-.269a5.173 5.173 0 0 1 1.039-.607 5.627 5.627 0 0 1 2.26-.472v12Zm6.418-4.839 7.983-29.178-11.575-3.166-7.983 29.177 11.575 3.167Zm6.452-26.532c.567-.571 1.901-2.121 1.901-4.52a6.124 6.124 0 0 0-6.158-6.132v12c-.89 0-2.443-.225-3.847-1.46a5.88 5.88 0 0 1-1.995-4.408 5.571 5.571 0 0 1 1.586-3.938l8.513 8.458Zm1.743-4.652a6.193 6.193 0 0 0-1.288-3.791 6.189 6.189 0 0 0-2.934-2.082 6.574 6.574 0 0 0-1.642-.322c-.286-.019-.546-.016-.556-.016v12c.096 0-.059.002-.247-.01a5.484 5.484 0 0 1-1.372-.276 5.8 5.8 0 0 1-2.744-1.956 5.808 5.808 0 0 1-1.217-3.547h12Z"/></svg>

<?xml version="1.0" encoding="UTF-8" standalone="no"?><svg xmlns:android="http://schemas.android.com/apk/res/android" height="192" width="192" xmlns="http://www.w3.org/2000/svg">
    <path d="M 86.652 139.766 L 80.652 139.766 C 80.652 143.079 83.338 145.766 86.652 145.766 L 86.652 139.766 Z M 47.158 22.211 L 51.414 26.441 L 53.158 24.686 L 53.158 22.211 L 47.158 22.211 Z M 47.158 22.634 L 52.466 19.837 L 50.778 16.634 L 47.158 16.634 L 47.158 22.634 Z M 54.51 36.589 L 60.51 36.589 C 60.51 35.614 60.273 34.654 59.818 33.792 L 54.51 36.589 Z M 54.51 155.411 L 59.801 158.242 C 60.266 157.371 60.51 156.399 60.51 155.411 L 54.51 155.411 Z M 47.158 169.154 L 47.158 175.154 L 50.752 175.154 L 52.448 171.985 L 47.158 169.154 Z M 47.158 169.577 L 53.158 169.577 L 53.158 167.103 L 51.414 165.348 L 47.158 169.577 Z M 136.86 169.577 L 141.116 173.806 L 142.23 172.685 L 142.647 171.161 L 136.86 169.577 Z M 144.842 140.4 L 140.586 136.171 L 139.472 137.292 L 139.055 138.817 L 144.842 140.4 Z M 144.842 139.977 L 138.842 139.977 L 138.842 145.977 L 144.842 145.977 L 144.842 139.977 Z M 144.422 133.766 L 86.652 133.766 L 86.652 145.766 L 144.422 145.766 L 144.422 133.766 Z M 92.652 139.766 L 92.652 22.423 L 80.652 22.423 L 80.652 139.766 L 92.652 139.766 Z M 92.652 22.423 C 92.652 17.441 88.081 16 86.021 16 L 86.021 28 C 85.263 28 84.055 27.809 82.879 26.921 C 81.666 26.006 80.652 24.419 80.652 22.423 L 92.652 22.423 Z M 86.021 16 L 47.578 16 L 47.578 28 L 86.021 28 L 86.021 16 Z M 47.578 16 C 47.568 16 47.308 15.998 47.022 16.017 C 46.75 16.035 46.122 16.089 45.38 16.338 C 44.602 16.599 43.409 17.174 42.446 18.42 C 41.446 19.715 41.158 21.13 41.158 22.211 L 53.158 22.211 C 53.158 23.188 52.896 24.523 51.941 25.758 C 51.024 26.945 49.897 27.48 49.197 27.715 C 48.534 27.937 47.998 27.978 47.825 27.99 C 47.637 28.002 47.482 28 47.578 28 L 47.578 16 Z M 42.901 17.982 C 42.334 18.554 41 20.104 41 22.502 C 41 23.924 41.519 25.731 43.074 27.101 C 44.53 28.383 46.162 28.634 47.158 28.634 L 47.158 16.634 C 48.048 16.634 49.601 16.859 51.005 18.095 C 52.508 19.419 53 21.159 53 22.502 C 53 24.742 51.771 26.081 51.414 26.441 L 42.901 17.982 Z M 41.849 25.431 L 49.202 39.386 L 59.818 33.792 L 52.466 19.837 L 41.849 25.431 Z M 48.51 36.589 L 48.51 155.411 L 60.51 155.411 L 60.51 36.589 L 48.51 36.589 Z M 49.22 152.581 L 41.867 166.324 L 52.448 171.985 L 59.801 158.242 L 49.22 152.581 Z M 47.158 163.154 C 46.162 163.154 44.53 163.406 43.074 164.688 C 41.519 166.057 41 167.864 41 169.286 C 41 171.685 42.334 173.235 42.901 173.806 L 51.414 165.348 C 51.771 165.708 53 167.047 53 169.286 C 53 170.629 52.508 172.37 51.005 173.694 C 49.601 174.929 48.048 175.154 47.158 175.154 L 47.158 163.154 Z M 41.158 169.577 C 41.158 171.621 42.113 173.172 43.033 174.097 C 43.95 175.02 45.508 176 47.578 176 L 47.578 164 C 49.438 164 50.786 164.875 51.545 165.639 C 52.307 166.405 53.158 167.745 53.158 169.577 L 41.158 169.577 Z M 47.578 176 L 136.229 176 L 136.229 164 L 47.578 164 L 47.578 176 Z M 136.229 176 C 138.304 176 139.712 174.994 140.159 174.657 C 140.672 174.27 141.089 173.833 141.116 173.806 L 132.603 165.348 C 132.42 165.533 132.627 165.307 132.93 165.079 C 133.112 164.941 133.465 164.694 133.969 164.472 C 134.487 164.245 135.262 164 136.229 164 L 136.229 176 Z M 142.647 171.161 L 150.63 141.983 L 139.055 138.817 L 131.072 167.994 L 142.647 171.161 Z M 149.099 144.629 C 149.666 144.058 151 142.508 151 140.109 C 151 138.687 150.481 136.88 148.926 135.51 C 147.47 134.228 145.838 133.977 144.842 133.977 L 144.842 145.977 C 143.952 145.977 142.399 145.752 140.995 144.517 C 139.492 143.193 139 141.452 139 140.109 C 139 137.87 140.229 136.531 140.586 136.171 L 149.099 144.629 Z M 150.842 139.977 C 150.842 138.895 150.554 137.481 149.554 136.186 C 148.591 134.94 147.399 134.365 146.62 134.104 C 145.878 133.855 145.25 133.801 144.978 133.782 C 144.692 133.763 144.432 133.766 144.422 133.766 L 144.422 145.766 C 144.518 145.766 144.363 145.768 144.175 145.756 C 144.002 145.744 143.466 145.703 142.803 145.48 C 142.102 145.246 140.976 144.71 140.059 143.524 C 139.104 142.289 138.842 140.953 138.842 139.977 L 150.842 139.977 Z" fill="#000000"/>
</svg>
